X:1
T:Title
L:1/8
Q:1/4=80
M:2/4
K:F
V:1 treble nm="Church Organ, Staff"
V:1
 AB- B/A/B | d .c3 | fe dc | d .G3 | BB AG | dd cA | fe dc | =B .A3 | cc ^FG | A B3 | BB AG | %11
w: By~Mr.~G.~B.~Lissant * * * *|||||||||||
 F d3 | ef Ae | dc AF | GA BA | G F3 |] %16
w: |||||

